X: 20793
T: HARRISON SETT (tune 6)
C:
%R: march, reel
B: Elias Howe "The Musician's Companion" 1843 p.79 #3
S: http://imslp.org/wiki/The_Musician's_Companion_(Howe,_Elias)
Z: 2015 John Chambers <jc:trillian.mit.edu>
M: 2/4
L: 1/16
K: C
% - - - - - - - - - - - - - - - - - - - - - - - - - - - - -
V: 1 name="6"
ce |\
g2ge g2ge | g2c'2 g2e2 | d2dg B2Bd | cGAB cdef |\
g2ge g2ge | g2c'2 g2e2 | d2dg B2Bd | c2e2c2 H|]
ce |\
g2ga g2e2 | g2ga g2e2 | f2f2 d2d2 | edcB cdef |\
g2ga g2e2 | g2ga g2e2 | f2f2 d2d2 | c4 "^D.C."z2 |]
% - - - - - - - - - - Dance description - - - - - - - - - -
%%begintext align
%% Ladies balance to the right and swing,
%% balance to next, &c.
%% all promenade,
%% all gentlemen balance to right, &c.
%%endtext
% - - - - - - - - - - - - - - - - - - - - - - - - - - - - -
%%sep 1 1 300

%%sep 1 1 500

